X: 34751
T: Road To Lisdoonvarna, The
R: reel
M: 4/4
K: Dmixolydian
DAAG ABcA|GEE2 cEGE|DAAG ABcA|B/^c/d AG FAEA|
DAAG ABcA|GEE2 cEGE|DAAG ABcA|B/^c/d AG FDD2||
defd cAAc|BGGB cAA2|defd cAAc|BGAG FDD2|
defd cAAc|BGGB cAA2|defd cAAc|BGAG FDDC||

